!!!COM: Mozart, Wolfgang Amadeus
!!!OPR: Divertimento in D Major
!!!OTL:
!!!OMV: 3
!!!SCT: K 136
!!!SCA: Chronologisch-thematisches Verzeichnis sämtlicher Tonwerke Wolfgang Amade Mozarts (L. von Köchel; 1862, 2/1905, 3/1937, 1947)
!!!YOR: Breitkopf & Härtel Edition
!!!EED: Frances Bennion
!!!ENC: Frances Bennion
!!!CDT: 1756/1/27/-1791/12/5/
!!!OCY: Österreich
!!!YEC: Copyright (c) 1994, 2000 Center for Computer Assisted Research in the Humanities
!!!YEM: Rights to all derivative editions reserved.
!!!YEM: Refer to licensing agreement for further details.
!!!YEN: United States of America
**kern	**kern	**kern	**kern
*k[f#c#]	*k[f#c#]	*k[f#c#]	*k[f#c#]
*D:	*D:	*D:	*D:
*clefG	*clefG	*clefF	*clefC
*M2/4	*M2/4	*M2/4	*M2/4
*tb32	*tb32	*tb32	*tb32
=1	=1	=1	=1
8dd	8a	8f#	8D
8r	8r	8r	8r
8ff#	8dd	8a	8DD
8r	8r	8r	8r
=2	=2	=2	=2
8ee	8b	8g	8GG
4.r	4.r	4.r	4.r
=3	=3	=3	=3
8gg	8b	8e	8EE
8r	8r	8r	8r
8cc#	8g	8e	8AA
8r	8r	8r	8r
=4	=4	=4	=4
8dd	8f#	8d	8DD
4.r	4.r	4.r	4.r
=5	=5	=5	=5
2aa	8f#	8d	8D
.	8f#	8d	8D
.	8f#	8d	8D
.	8f#	8d	8D
=6	=6	=6	=6
8gg	8f#	8d	8D
8ff#	8f#	8d	8D
8ee	8f#	8d	8D
8dd	8f#	8d	8D
=7	=7	=7	=7
4.cc#	8g	4.e	8D
.	8g	.	8D
.	8g	.	8D
16dd	8g	16d	8D
16ee	.	16c#	.
=8	=8	=8	=8
4dd	8f#	8d	8D
.	8f#	8d	8D
4r	8f#	8d	8D
.	8f#	8d	8D
=9	=9	=9	=9
2aa	8f#	8d	8DD
.	8f#	8d	8DD
.	8f#	8d	8DD
.	8f#	8d	8DD
=10	=10	=10	=10
8gg	8a	8d	8DD
8ff#	8a	8d	8DD
8ee	8a	8d	8DD
8dd	8a	8d	8DD
=11	=11	=11	=11
4.ee	8a	4.c#	8DD
.	8a	.	8DD
.	8a	.	8DD
16ff#	8a	16d	8DD
16gg	.	16e	.
=12	=12	=12	=12
4ff#	8a	8d	8DD
.	8a	8f#	8DD
4r	8a	8f#	8DD
.	8a	8f#	8DD
=13	=13	=13	=13
4bb	16g	8d	8DD
.	16a	.	.
.	16g	8d	8DD
.	16f#	.	.
8ccc#	16g	8d	8DD
.	16e	.	.
16bb	16a	8d	8DD
16ccc#	16g	.	.
=14	=14	=14	=14
4ddd	16f#	8D	8DD
.	16g	.	.
.	16a	8D	8DD
.	16g	.	.
8r	16f#	8D	8DD
.	16e	.	.
8dd	16f#	8D	8DD
.	16d	.	.
=15	=15	=15	=15
4.ee	16c#	8A	8AA
.	16d	.	.
.	16c#	8A	8AA
.	16B	.	.
.	16A	8A	8AA
.	16c#	.	.
16ff#	16d	8A	8AA
16gg	16e	.	.
=16	=16	=16	=16
4ff#	16d	8A	8D
.	16e	.	.
.	16f#	8A	8D
.	16g	.	.
4r	16a	8A	8D
.	16b	.	.
.	16cc#	8A	8D
.	16dd	.	.
=17	=17	=17	=17
4bb	16g	8d	8DD
.	16a	.	.
.	16g	8d	8DD
.	16f#	.	.
8ccc#	16g	8d	8DD
.	16e	.	.
16bb	16a	8d	8DD
16ccc#	16g	.	.
=18	=18	=18	=18
4ddd	16f#	8D	8DD
.	16g	.	.
.	16a	8D	8DD
.	16g	.	.
8r	16f#	8D	8DD
.	16e	.	.
8dd	16f#	8D	8DD
.	16d	.	.
=19	=19	=19	=19
4.ee	16c#	8A	8AA
.	16d	.	.
.	16c#	8A	8AA
.	16B	.	.
.	16A	8A	8AA
.	16c#	.	.
16ff#	16d	8A	8AA
16gg	16e	.	.
=20	=20	=20	=20
4ff#	16d	8A	8D
.	16e	.	.
.	16f#	8A	8D
.	16g	.	.
4r	16a	8A	8D
.	16b	.	.
.	16cc#	8A	8D
.	16dd	.	.
=21	=21	=21	=21
4ff#	4a	8d	8D
.	.	8f#	8D
8.gg#	8.b	8e	8D
.	.	8e	8D
32ff#	32a	.	.
32gg#	32b	.	.
=22	=22	=22	=22
8aa	8a	8e	8C#
8aa	8ee	8a	8c#
8bb	8dd	8g#	8B
8ccc#	8cc#	8a	8A
=23	=23	=23	=23
8ddd	8b	8e	8G#
8r	8r	8r	8r
8ccc#	8a	8e	8A
8r	8r	8r	8r
=24	=24	=24	=24
8bb	8g#	8e	8E
4.r	4.r	4.r	4.r
=25	=25	=25	=25
2r	2r	8A	4A
.	.	8A	.
.	.	8A	4r
.	.	8A	.
=26	=26	=26	=26
8r	8r	8A	4AA
8cc#	8A	8A	.
8dd	8B	8A	4r
8ee	8c#	8A	.
=27	=27	=27	=27
8ff#	8d	8A	4D
8gg#	8e	8A	.
8aa	8f#	8A	4r
8r	8r	8A	.
=28	=28	=28	=28
8r	8r	8A	4DD
8aa	8f#	8A	.
8gg#	8e	8A	4r
8ff#	8d	8A	.
=29	=29	=29	=29
8ee	8c#	8A	4AA
8dd	8B	8A	.
8cc#	8A	8A	4r
8r	8r	8A	.
=30	=30	=30	=30
8r	8r	8A	4A
8cc#	8A	8A	.
8dd	8B	8A	4r
8ee	8c#	8A	.
=31	=31	=31	=31
8ff#	8d	8A	4D
8gg#	8e	8A	.
8aa	8f#	8A	4r
8r	8r	8A	.
=32	=32	=32	=32
8r	8r	8A	4DD
8aa	8f#	8A	.
8gg#	8e	8A	4r
8ff#	8d	8A	.
=33	=33	=33	=33
8ee	8c#	8A	4AA
8dd	8B	8A	.
8cc#	8A	8A	4r
8r	8r	8A	.
=34	=34	=34	=34
8r	8r	8A	8AA
8aa	8a	8e	8c#
8bb	8b	8g#	8B
8ccc#	8cc#	8a	8A
=35	=35	=35	=35
8ccc#	8cc#	8a	8G#
8ddd	8dd	8b	8G#
[4ddd	[4dd	[4b	8G#
.	.	.	8G#
=36	=36	=36	=36
8ddd]	8dd]	8b]	8E
8bb	8dd	8b	8E
8gg#	8b	8g#	8E
16ff#	16a	16f#	8E
16ee	16g#	16e	.
=37	=37	=37	=37
4eee	4ee	4cc#	8AA
.	.	.	8AA
[4eee	[4ee	[4cc#	8AA
.	.	.	8AA
=38	=38	=38	=38
8eee]	8ee]	8cc#]	8AA
8aa	8a	8e	8c#
8bb	8b	8g#	8B
8ccc#	8cc#	8a	8A
=39	=39	=39	=39
8ccc#	8cc#	8a	8G#
8ddd	8dd	8b	8G#
[4ddd	[4dd	[4b	8G#
.	.	.	8G#
=40	=40	=40	=40
8ddd]	8dd]	8b]	8E
8bb	8dd	8b	8E
8gg#	8b	8g#	8E
16ff#	16a	16f#	8E
16ee	16g#	16e	.
=41	=41	=41	=41
4eee	4ee	4cc#	8AA
.	.	.	8AA
[4eee	[4ee	[4cc#	8AA
.	.	.	8AA
=42	=42	=42	=42
8eee]	8ee]	8cc#]	8AA
8ccc#	8ee	8a	8AA
8aa	8cc#	8e	8AA
8ee	8a	8c#	8AA
=43	=43	=43	=43
4ff#	4a	4d	8D
.	.	.	8D
[4ff#	[4a	[4d	8D
.	.	.	8D
=44	=44	=44	=44
8ff#]	8a]	8d]	8D
8dd	8f#	8a	8D
8b	8d	8f#	8D
8f#	8B	8d	8D
=45	=45	=45	=45
2e	4c#	4e	8E
.	.	.	8E
.	16a	16e	8E
.	16a	16e	.
.	16a	16e	8E
.	16a	16e	.
=46	=46	=46	=46
2bb	16a	16d	8EE
.	16a	16d	.
.	16a	16d	8EE
.	16a	16d	.
.	16g#	16d	8EE
.	16g#	16d	.
.	16g#	16d	8EE
.	16g#	16d	.
=47	=47	=47	=47
16aa	4a	4c#	4AA
16a	.	.	.
16b	.	.	.
16cc#	.	.	.
16dd	4r	4r	4r
16ee	.	.	.
16ff#	.	.	.
16gg#	.	.	.
=48	=48	=48	=48
16aa	4e	4c#	4AA
16ee	.	.	.
16ff#	.	.	.
16gg#	.	.	.
16aa	4r	4r	4r
16bb	.	.	.
16aa	.	.	.
16bb	.	.	.
=49	=49	=49	=49
16ccc#	4a	4e 4c#	4AA
16bb	.	.	.
16aa	.	.	.
16bb	.	.	.
16ccc#	4r	4r	4r
16ddd	.	.	.
16ccc#	.	.	.
16ddd	.	.	.
=50	=50	=50	=50
8eee	8a	8e	8C#
8ccc#	8a	8e	8C#
8aa	8a	8e	8C#
8gg	8a	8e	8C#
=51	=51	=51	=51
4ff#	4a	4d	4D
8aa	4r	4r	4r
16gg#	.	.	.
16ff#	.	.	.
=52	=52	=52	=52
8ff#	4a	4f#	4D
16ee	.	.	.
16dd	.	.	.
8dd	4a	4f#	4D
16cc#	.	.	.
16b	.	.	.
=53	=53	=53	=53
2a	16a	16e	8E
.	16a	16e	.
.	16a	16e	8E
.	16a	16e	.
.	16a	16e	8E
.	16a	16e	.
.	16a	16e	8E
.	16a	16e	.
=54	=54	=54	=54
2b	16g#	16d	8EE
.	16g#	16d	.
.	16g#	16d	8EE
.	16g#	16d	.
.	16g#	16d	8EE
.	16g#	16d	.
.	16g#	16d	8EE
.	16g#	16d	.
=55	=55	=55	=55
8aa 8a	8a	4c#	4AA
8ee	8cc#	.	.
8dd	8b	8r	8r
8gg# 8b	8dd	8e	8E
=56	=56	=56	=56
8aa 8a	8cc# 8e	4e	4AA
8ee	8cc#	.	.
8dd	8b	8r	8r
8gg# 8b	8dd 8e	8e	8EE
=57	=57	=57	=57
4aa 4a	4cc# 4e	4e	4AA
4a 4e 4c#	4a 4e 4A	4A	4AA
=58	=58	=58	=58
4a 4e 4c#	4a 4e 4A	4A	4AA
4r	4r	4r	4r
=59	=59	=59	=59
2r	4.a	2r	2r
.	8a	.	.
=60	=60	=60	=60
2r	8g	2r	2r
.	8f#	.	.
.	8g	.	.
.	8e	.	.
=61	=61	=61	=61
4.aa	8f#	2r	2r
.	8e	.	.
.	8f#	.	.
8aa	8d	.	.
=62	=62	=62	=62
8gg	8e	2r	2r
8ff#	8d	.	.
8gg	8e	.	.
8ee	8c#	.	.
=63	=63	=63	=63
8ff#	8d	2r	4.d
8gg	8e	.	.
8aa	8f#	.	.
8gg	8e	.	8d
=64	=64	=64	=64
4.ff#	4d	2r	8c
.	.	.	8B
.	[4dd	.	8c
16gg	.	.	8A
16aa	.	.	.
=65	=65	=65	=65
4.gg	8dd]	4.dd	8B
.	8cc	.	8A
.	8dd	.	8B
16ff#	8b	8dd	8G
16gg	.	.	.
=66	=66	=66	=66
4cc	8f#	8cc	8A
.	8g	8b	8G
4ccc	8f#	8cc	8A
.	8a 8d	8a	8F#
=67	=67	=67	=67
4bb	4g	8b	4G
.	.	8a	.
[4ee	4r	8b	4r
.	.	8g	.
=68	=68	=68	=68
4ee]	2cc	8a	2r
.	.	8g	.
4dd#	.	8a	.
.	.	8f#	.
=69	=69	=69	=69
4.ee	2b	8g	2r
.	.	8f#	.
.	.	8g	.
8gg	.	8e	.
=70	=70	=70	=70
4a#	2r	4f#	4.F#
4f#	.	4A#	.
.	.	.	8F#
=71	=71	=71	=71
4g#	2r	4B	8E
.	.	.	8D
4a#	.	8c#	8E
.	.	8e	8C#
=72	=72	=72	=72
4b	4.bb	4d	4BB
4r	.	4r	4BB
.	8bb	.	.
=73	=73	=73	=73
2r	8aa	2r	4C#
.	8gg	.	.
.	8aa	.	4D#
.	8ff#	.	.
=74	=74	=74	=74
2r	4gg	4.e	4E
.	4ee	.	4r
.	.	8e	.
=75	=75	=75	=75
2r	4ff#	8d	2r
.	.	8c#	.
.	4gg#	8d	.
.	.	8B	.
=76	=76	=76	=76
4.a	4aa	4A	2r
.	4r	4a	.
8a	.	.	.
=77	=77	=77	=77
8g	2r	4b	2r
8f#	.	.	.
8g	.	4cc#	.
8e	.	.	.
=78	=78	=78	=78
8f#	4.ddd	4dd	2r
8e	.	.	.
8f#	.	4d	.
8d	8ddd	.	.
=79	=79	=79	=79
8e	8ccc#	[2A	2r
8d	8bb	.	.
8e	8ccc#	.	.
8c#	8aa	.	.
=80	=80	=80	=80
8d	4.bb	4A]	2r
8B	.	.	.
8e	.	[4G	.
8d	8bb	.	.
=81	=81	=81	=81
8c#	4.aa	4G]	2r
8A	.	.	.
[4d	.	8F#	.
.	8ff#	8G	.
=82	=82	=82	=82
4d]	2ee	2A	2r
4c#	.	.	.
=83	=83	=83	=83
4ddd 4dd 4d	4ff 4dd	4f 4B-	4BB-
4r	4r	4r	4r
=84	=84	=84	=84
4ff 4dd	4b 4d	4d 4B	4GG#
4r	4r	4r	4r
=85	=85	=85	=85
4ee 4cc# 4a	4cc# 4e 4A	4.a 4.e 4.A	4AA
4r	4r	.	4r
.	.	8a	.
=86	=86	=86	=86
2r	2r	8g	2r
.	.	8f#	.
.	.	8g	.
.	.	8e	.
=87	=87	=87	=87
8dd	8a	8f#	8D
8r	8r	8r	8r
8ff#	8dd	8a	8DD
8r	8r	8r	8r
=88	=88	=88	=88
8ee	8b	8g	8GG
4.r	4.r	4.r	4.r
=89	=89	=89	=89
8gg	8b	8e	8EE
8r	8r	8r	8r
8cc#	8g	8e	8AA
8r	8r	8r	8r
=90	=90	=90	=90
8dd	8f#	8d	8DD
4.r	4.r	4.r	4.r
=91	=91	=91	=91
2aa	8f#	8d	8D
.	8f#	8d	8D
.	8f#	8d	8D
.	8f#	8d	8D
=92	=92	=92	=92
8gg	8f#	8d	8D
8ff#	8f#	8d	8D
8ee	8f#	8d	8D
8dd	8f#	8d	8D
=93	=93	=93	=93
4.cc#	8g	4.e	8D
.	8g	.	8D
.	8g	.	8D
16dd	8g	16d	8D
16ee	.	16c#	.
=94	=94	=94	=94
4dd	8f#	4d	8D
.	8f#	.	8D
4r	8f#	4r	8D
.	8f#	.	8D
=95	=95	=95	=95
2aa	8f#	8d	8DD
.	8f#	8d	8DD
.	8f#	8d	8DD
.	8f#	8d	8DD
=96	=96	=96	=96
8gg	8a	8d	8DD
8ff#	8a	8d	8DD
8ee	8a	8d	8DD
8dd	8a	8d	8DD
=97	=97	=97	=97
4.ee	8a	4.c#	8DD
.	8a	.	8DD
.	8a	.	8DD
16ff#	8a	16d	8DD
16gg	.	16e	.
=98	=98	=98	=98
4ff#	8a	8d	8DD
.	8a	8d	8DD
4r	8a	8d	8DD
.	8a	8d	8DD
=99	=99	=99	=99
4bb	16g	8d	8D
.	16a	.	.
.	16g	8d	8D
.	16f#	.	.
8ccc#	16g	8d	8D
.	16e	.	.
16bb	16a	8d	8D
16ccc#	16g	.	.
=100	=100	=100	=100
4ddd	16f#	8D	8DD
.	16g	.	.
.	16a	8D	8DD
.	16g	.	.
8r	16f#	8D	8DD
.	16e	.	.
8dd	16f#	8D	8DD
.	16d	.	.
=101	=101	=101	=101
4.ee	16c#	8A	8AA
.	16d	.	.
.	16c#	8A	8AA
.	16B	.	.
.	16A	8A	8AA
.	16c#	.	.
16ff#	16d	8A	8AA
16gg	16e	.	.
=102	=102	=102	=102
4ff#	16d	8A	8D
.	16e	.	.
.	16f#	8A	8D
.	16g	.	.
4r	16a	8A	8D
.	16b	.	.
.	16cc#	8A	8D
.	16dd	.	.
=103	=103	=103	=103
4bb	16g	8d	8D
.	16a	.	.
.	16g	8d	8D
.	16f#	.	.
8ccc#	16g	8d	8D
.	16e	.	.
16bb	16a	8d	8D
16ccc#	16g	.	.
=104	=104	=104	=104
4ddd	16f#	8D	8DD
.	16g	.	.
.	16a	8D	8DD
.	16g	.	.
8r	16f#	8D	8DD
.	16e	.	.
8dd	16f#	8D	8DD
.	16d	.	.
=105	=105	=105	=105
4.ee	16c#	8A	8AA
.	16d	.	.
.	16c#	8A	8AA
.	16B	.	.
.	16A	8A	8AA
.	16c#	.	.
16ff#	16d	8A	8AA
16gg	16e	.	.
=106	=106	=106	=106
4ff#	16d	8A	8D
.	16e	.	.
.	16f#	8A	8D
.	16g	.	.
4r	16a	8A	8D
.	16b	.	.
.	16cc#	8A	8D
.	16dd	.	.
=107	=107	=107	=107
4b	4d	8G	8G
.	.	8g	8G
8.cc#	8.e	8a	8G
.	.	8A	8G
32b	32d	.	.
32cc#	32e	.	.
=108	=108	=108	=108
8dd	8d	8A	8F#
8ff#	8dd	8a	8F#
8gg	8ee	8cc#	8E
8aa	8ff#	8dd	8D
=109	=109	=109	=109
8gg	8ee	8a	8C#
8r	8r	8r	8r
8ff#	8dd	8a	8D
8r	8r	8r	8r
=110	=110	=110	=110
8ee	8cc#	8a	8AA
4.r	4.r	4.r	4.r
=111	=111	=111	=111
2r	2r	8d	4D
.	.	8d	.
.	.	8d	4r
.	.	8d	.
=112	=112	=112	=112
8r	8r	8d	4DD
8ff#	8d	8d	.
8gg	8e	8d	4r
8aa	8f#	8d	.
=113	=113	=113	=113
8bb	8g	8d	4GG
8ccc#	8a	8d	.
8ddd	8b	8d	4r
8r	8r	8d	.
=114	=114	=114	=114
8r	8r	8d	4G
8ddd	8b	8d	.
8ccc#	8a	8d	4r
8bb	8g	8d	.
=115	=115	=115	=115
8aa	8f#	8D	4D
8gg	8e	8D	.
8ff#	8d	8D	4r
8r	8r	8D	.
=116	=116	=116	=116
8r	8r	8D	4DD
8ff#	8d	8D	.
8gg	8e	8D	4r
8aa	8f#	8D	.
=117	=117	=117	=117
8bb	8g	8D	4GG
8ccc#	8a	8D	.
8ddd	8b	8D	4r
8r	8r	8D	.
=118	=118	=118	=118
8r	8r	8D	4GG
8ddd	8b	8D	.
8ccc#	8a	8D	4r
8bb	8g	8D	.
=119	=119	=119	=119
8aa	8f#	8D	4DD
8gg	8e	8D	.
8ff#	8d	8D	4r
8r	8r	8D	.
=120	=120	=120	=120
8r	8r	8D	8DD
8dd	8d	8d	8F#
8ee	8c#	8e	8E
8ff#	8d	8f#	8D
=121	=121	=121	=121
8ff#	8d	8f#	8C#
8gg	8e	8g	8C#
[4gg	4e	[4g	8C#
.	.	.	8C#
=122	=122	=122	=122
8gg]	8r	8g]	8AA
8ee	8g	8e	8AA
8cc#	8e	8c#	8AA
16b	16d	16B	8AA
16a	16c#	16A	.
=123	=123	=123	=123
4aa	4a	4f#	8DD
.	.	.	8DD
[4aa	4a	4f#	8DD
.	.	.	8DD
=124	=124	=124	=124
8aa]	8r	8D	8DD
8dd	8d	8d	8F#
8ee	8c#	8e	8E
8ff#	8d	8f#	8D
=125	=125	=125	=125
8ff#	8d	8f#	8C#
8gg	8e	8g	8C#
[4gg	4e	[4g	8C#
.	.	.	8C#
=126	=126	=126	=126
8gg]	8r	8g]	8AA
8ee	8g	8e	8AA
8cc#	8e	8c#	8AA
16b	16d	16B	8AA
16a	16c#	16A	.
=127	=127	=127	=127
4aa	4a	4f#	8DD
.	.	.	8DD
[4aa	4a	4f#	8DD
.	.	.	8DD
=128	=128	=128	=128
8aa]	8f#	8d	8D
8ff#	8f#	8d	8D
8dd	8f#	8d	8D
8a	8f#	8d	8D
=129	=129	=129	=129
4bb	4g	8d	8G
.	.	8d	8G
[4ddd	[4b	8d	8G
.	.	8d	8G
=130	=130	=130	=130
8ddd]	8b]	8d	8GG
8bb	8gg	8d	8GG
8gg	8dd	8d	8GG
8dd	8b	8d	8GG
=131	=131	=131	=131
2a	16a	16f#	8AA
.	16a	16f#	.
.	16a	16f#	8AA
.	16a	16f#	.
.	16dd	16a	8AA
.	16dd	16a	.
.	16dd	16a	8AA
.	16dd	16a	.
=132	=132	=132	=132
2ee	16dd	16g	8AA
.	16dd	16g	.
.	16dd	16g	8AA
.	16dd	16g	.
.	16cc#	16g	8AA
.	16cc#	16g	.
.	16cc#	16g	8AA
.	16cc#	16g	.
=133	=133	=133	=133
16dd	4dd	4f#	4D
16d	.	.	.
16e	.	.	.
16f#	.	.	.
16g	4r	4r	4r
16a	.	.	.
16b	.	.	.
16cc#	.	.	.
=134	=134	=134	=134
16dd	4a 4f#	4d	4DD
16a	.	.	.
16b	.	.	.
16cc#	.	.	.
16dd	4r	4r	4r
16ee	.	.	.
16ff#	.	.	.
16gg	.	.	.
=135	=135	=135	=135
16aa	4ff# 4a	4d	4DD
16dd	.	.	.
16ee	.	.	.
16ff#	.	.	.
16gg	4r	4r	4r
16aa	.	.	.
16bb	.	.	.
16ccc#	.	.	.
=136	=136	=136	=136
8ddd	8dd	8f#	8FF#
8ccc	8dd	8a	8FF#
8bb	8dd	8g	8FF#
8aa#	8dd	8f#	8FF#
=137	=137	=137	=137
4bb	4dd	4g	4GG
8bb	4r	4r	4r
16aa	.	.	.
16gg	.	.	.
=138	=138	=138	=138
8gg	4b	4d	4GG
16ff#	.	.	.
16ee	.	.	.
8dd	4e	4d	4GG
16cc#	.	.	.
16b	.	.	.
=139	=139	=139	=139
4.aa 4.a	16f# 16A	16d	8AA
.	16f# 16A	16d	.
.	16f# 16A	16d	8AA
.	16f# 16A	16d	.
.	16f# 16A	16d	8AA
.	16f# 16A	16d	.
8dd	16f# 16A	16d	8AA
.	16f# 16A	16d	.
=140	=140	=140	=140
2ee	16g 16A	16c#	8AA
.	16g 16A	16c#	.
.	16g 16A	16c#	8AA
.	16g 16A	16c#	.
.	16g 16A	16c#	8AA
.	16g 16A	16c#	.
.	16g 16A	16c#	8AA
.	16g 16A	16c#	.
=141	=141	=141	=141
8dd	8f# 8A	4d	4D
8aa	8ff#	.	.
8gg	8ee	8r	8r
8ccc# 8a	8gg 8a	8e	8AA
=142	=142	=142	=142
8ddd 8a	8ff# 8a	4d	4D
8aa	8ff#	.	.
8gg	8ee	8r	8r
8ccc# 8a	8gg 8a	8e	8AA
=143	=143	=143	=143
4ddd 4a 4d	4ff# 4a 4d	4d	4D
4ddd 4a 4d	4ff# 4a 4d	4a 4d	4DD
=144	=144	=144	=144
4ddd 4a 4d	4ff# 4a 4d	4a 4d	4DD
4r	4r	4r	4r
==	==	==	==
*-	*-	*-	*-
!!!RWG1: This file contains only pitch and duration data.
!!!RWG2: Transposing instruments are not transposed.
!!!RWG3: Spines may have incompatible meters.
!!!RWG4: Durations of rests and tied notes may be interpreted.
!!!RWG: Key is interpreted using the Humdrum key tool.
!!!AFT: stage1
!!!END: 1997/04/15
!!format changes:
!!content changes:
!!public access: complete
!!!KEY: 804791191
!!!EMD: Converted from MuseData to Humdrum Dec 16, 2000, by Andreas Kornstaedt using muse2kern.
